X:1
T:60 Lessons for 2 Guitars, Op.168 - Joseph Küffner (1776 - 1856)
T:Leçon No.54
T:60 Lessons for 2 Guitars, Op.168 "à l'usage des commençants"
T:Joseph Küffner (1776 - 1856)
%%score { ( 1 2 ) ( 3 4 ) } { ( 5 6 ) ( 7 8 ) }
L:1/8
Q:1/4=76
M:6/8
K:F
V:1 treble-8 nm="Classical Guitar"
V:2 treble-8 
V:3 tab stafflines=6 strings=E2,A2,D3,G3,B3,E4 nostems nm="Guitare classique [Tablature]"
V:4 tab stafflines=6 strings=E2,A2,D3,G3,B3,E4 nostems 
V:5 treble-8 nm="Guitare classique"
V:6 treble-8 
V:7 tab stafflines=6 strings=E2,A2,D3,G3,B3,E4 nostems nm="Guitare classique [Tablature]"
V:8 tab stafflines=6 strings=E2,A2,D3,G3,B3,E4 nostems 
V:1
"_" f |"^Andante" [FAc]2 [FAc] [FAc]2 [FAc] | !>![EBc]3 z z g | [EBc]2 [EBc] [EBc]2 [EBc] | %4
 [FAc]3 z z"_" a | [eg]2 [eg] [A,A^ce]2 [A,Ace] | !arpeggio![DAdf]3 [Af][Ge][Fd] | %7
 [Ec]2 [Ec] [Ge]2 [Fd] | [Ec]2 z z2 ::"_" g | (fe).d [EBc]2 [EBc] | [FAc]2 f f2 e | %12
!<(! d2 e f2 g!<)! |"_" [A,A^ca]3 b2 e | f2 f f2 e | [Bd]2 [Bd] [df]2 [Bd] | %16
 [Ac]2 [Af] [ca]2 [Bg] | [Af]2 z z2 :| %18
V:2
 x | x6 | x6 | x6 | x6 | x6 | x6 | x6 | x5 :: x | x6 | x6 | x6 | x3 z2 z | z2 A A2 =c | x6 | x6 | %17
 x5 :| %18
V:3
 !1!F | [!4!F,!3!A,!2!C]2 [!4!F,!3!A,!2!C] [!4!F,!3!A,!2!C]2 [!4!F,!3!A,!2!C] | %2
 [!4!E,!3!B,!2!C]3 x x !1!G | %3
 [!4!E,!3!B,!2!C]2 [!4!E,!3!B,!2!C] [!4!E,!3!B,!2!C]2 [!4!E,!3!B,!2!C] | %4
 [!4!F,!3!A,!2!C]3 x x !1!A | %5
 [!2!E!1!G]2 [!2!E!1!G] [!5!A,,!3!A,!2!^C!1!E]2 [!5!A,,!3!A,!2!C!1!E] | %6
 [!4!D,!3!A,!2!D!1!F]3 [!3!A,!1!F] [!3!G,!1!E] [!4!F,!2!D] | %7
 [!4!E,!2!C]2 [!4!E,!2!C] [!3!G,!1!E]2 [!4!F,!2!D] | [!4!E,!2!C]2 x x2 :: !1!G | %10
 (!1!F !1!E) !2!D [!4!E,!3!B,!2!C]2 [!4!E,!3!B,!2!C] | [!4!F,!3!A,!2!C]2 !1!F !1!F2 !1!E | %12
 !2!D2 !1!E !1!F2 !1!G | [!5!A,,!3!A,!2!^C!1!A]3 !1!B2 !1!E | !1!F2 !1!F !1!F2 !1!E | %15
 [!3!B,!2!D]2 [!3!B,!2!D] [!2!D!1!F]2 [!3!B,!2!D] | %16
 [!3!A,!2!C]2 [!3!A,!1!F] [!3!C!1!A]2 [!3!B,!1!G] | [!3!A,!1!F]2 x x2 :| %18
V:4
 x | x6 | x6 | x6 | x6 | x6 | x6 | x6 | x5 :: x | x6 | x6 | x6 | x3 x2 x | x2 !3!A, !3!A,2 !2!=C | %15
 x6 | x6 | x5 :| %18
V:5
 z |"_" z/ F/A/c/F/A/ z/ F/A/c/F/A/ | z/ E/B/c/E/G/ z/ E/B/c/E/G/ | z/ E/B/c/E/G/ z/ E/B/c/E/G/ | %4
 z/ F/A/c/F/A/ z/ F/A/c/F/A/ |"_" z/ E/A/^c/E/A/ z/ E/A/c/E/A/ | z/ A/d/A/d/A/ D/A/E/A/F/A/ | %7
 z/ E/G/c/E/G/ z/ F/G/=B/F/G/ | z/ E/G/c/E/G/ C2 :: z |"_" z/ B/c/B/c/B/ z/ B/c/B/c/B/ | %11
 z/ A/c/A/c/A/ z/ A/^c/A/c/A/ | z/ A/d/A/d/A/ z/ B/d/B/d/B/ |"_" z/ A/^c/e/A/c/ z/ B/=c/e/B/c/ | %14
 z/ A/c/f/A/c/ z/ A/c/f/A/c/ | z/ F/B/d/F/B/ z/ F/B/d/F/B/ | z/ F/A/c/F/A/ z/ E/B/c/E/B/ | %17
 z/ F/A/c/F/A/ F,2 :| %18
V:6
 x | F,3 F,3 | G,3 G,3 | G,3 G,3 | F,3 F,3 | A,3 A,3 | D3 DEF | G,3 G,3 | C3 x2 :: x | E3 C3 | %11
 F,3 E,3 | D3 B,3 | A,3 G,3 | F3 A,3 | B,3 B,3 | C3 C3 | F,3 x2 :| %18
V:7
 x | x/ !4!F,/ !3!A,/ !2!C/ !4!F,/ !3!A,/ x/ !4!F,/ !3!A,/ !2!C/ !4!F,/ !3!A,/ | %2
 x/ !4!E,/ !3!B,/ !2!C/ !4!E,/ !3!G,/ x/ !4!E,/ !3!B,/ !2!C/ !4!E,/ !3!G,/ | %3
 x/ !4!E,/ !3!B,/ !2!C/ !4!E,/ !3!G,/ x/ !4!E,/ !3!B,/ !2!C/ !4!E,/ !3!G,/ | %4
 x/ !4!F,/ !3!A,/ !2!C/ !4!F,/ !3!A,/ x/ !4!F,/ !3!A,/ !2!C/ !4!F,/ !3!A,/ | %5
 x/ !4!E,/ !3!A,/ !2!^C/ !4!E,/ !3!A,/ x/ !4!E,/ !3!A,/ !2!C/ !4!E,/ !3!A,/ | %6
 x/ !3!A,/ !2!D/ !3!A,/ !2!D/ !3!A,/ !4!D,/ !3!A,/ !4!E,/ !3!A,/ !4!F,/ !3!A,/ | %7
 x/ !4!E,/ !3!G,/ !2!C/ !4!E,/ !3!G,/ x/ !4!F,/ !3!G,/ !2!=B,/ !4!F,/ !3!G,/ | %8
 x/ !4!E,/ !3!G,/ !2!C/ !4!E,/ !3!G,/ !5!C,2 :: x | %10
 x/ !3!B,/ !2!C/ !3!B,/ !2!C/ !3!B,/ x/ !3!B,/ !2!C/ !3!B,/ !2!C/ !3!B,/ | %11
 x/ !3!A,/ !2!C/ !3!A,/ !2!C/ !3!A,/ x/ !3!A,/ !2!^C/ !3!A,/ !2!C/ !3!A,/ | %12
 x/ !3!A,/ !2!D/ !3!A,/ !2!D/ !3!A,/ x/ !3!B,/ !2!D/ !3!B,/ !2!D/ !3!B,/ | %13
 x/ !3!A,/ !2!^C/ !1!E/ !3!A,/ !2!C/ x/ !3!B,/ !2!=C/ !1!E/ !3!B,/ !2!C/ | %14
 x/ !3!A,/ !2!C/ !1!F/ !3!A,/ !2!C/ x/ !3!A,/ !2!C/ !1!F/ !3!A,/ !2!C/ | %15
 x/ !4!F,/ !3!B,/ !2!D/ !4!F,/ !3!B,/ x/ !4!F,/ !3!B,/ !2!D/ !4!F,/ !3!B,/ | %16
 x/ !4!F,/ !3!A,/ !2!C/ !4!F,/ !3!A,/ x/ !4!E,/ !3!B,/ !2!C/ !4!E,/ !3!B,/ | %17
 x/ !4!F,/ !3!A,/ !2!C/ !4!F,/ !3!A,/ !6!F,,2 :| %18
V:8
 x | !6!F,,3 !6!F,,3 | !6!G,,3 !6!G,,3 | !6!G,,3 !6!G,,3 | !6!F,,3 !6!F,,3 | !5!A,,3 !5!A,,3 | %6
 !4!D,3 x x x | !6!G,,3 !6!G,,3 | !5!C,3 x2 :: x | !4!E,3 !5!C,3 | !6!F,,3 !6!E,,3 | %12
 !4!D,3 !5!B,,3 | !5!A,,3 !6!G,,3 | !4!F,3 !5!A,,3 | !5!B,,3 !5!B,,3 | !5!C,3 !5!C,3 | %17
 !6!F,,3 x2 :| %18

